X:105
T:Polonesse in A Moll no 1 ur Anders Larssons notbok
B: Anders Larssons notbok
O:Östra Ryd, Östergötland
R:Slängpolska
Z:Till abc av Olle Paulsson
B:http://www.smus.se/earkiv/fmk/browselarge.php?lang=sw&katalogid=M+189&bildnr=00023
N:korrekturläs gärna
M:3/4
L:1/16
K:Am
A3B c2BG E4|c2c2 d2cd e2e2|efed cdcB A2AB|cBA^G A4 A,4::
e2ef g2ga g2fe|gfed d2cB c4|cdef g2ga g2fe|gfed d4 e4|
c2cd B2Bc A2A2|c2cd B2Bc A4|e2e2 gfed c2B2|cBA^G A4 A,4:|

